<?xml version="1.0" encoding="UTF-8"?>
<map version="1.10" tiledversion="1.11.1" orientation="orthogonal" renderorder="right-down" compressionlevel="0" width="6" height="10" tilewidth="16" tileheight="16" infinite="0" nextlayerid="36" nextobjectid="254">
 <properties>
  <property name="DefaultWarpLocation" value="60 13"/>
 </properties>
 <tileset firstgid="1" name="z_festivals" tilewidth="16" tileheight="16" tilecount="1024" columns="32">
  <image source="Festivals.png" width="512" height="512"/>
  <tile id="63">
   <animation>
    <frame tileid="63" duration="750"/>
    <frame tileid="63" duration="750"/>
    <frame tileid="63" duration="750"/>
    <frame tileid="63" duration="750"/>
    <frame tileid="31" duration="750"/>
   </animation>
  </tile>
  <tile id="274">
   <animation>
    <frame tileid="274" duration="1000"/>
    <frame tileid="274" duration="1000"/>
    <frame tileid="274" duration="1000"/>
    <frame tileid="273" duration="1000"/>
    <frame tileid="273" duration="1000"/>
   </animation>
  </tile>
  <tile id="307">
   <animation>
    <frame tileid="307" duration="1000"/>
    <frame tileid="307" duration="1000"/>
    <frame tileid="307" duration="1000"/>
    <frame tileid="307" duration="1000"/>
    <frame tileid="307" duration="1000"/>
    <frame tileid="307" duration="1000"/>
    <frame tileid="307" duration="1000"/>
    <frame tileid="275" duration="1000"/>
   </animation>
  </tile>
  <tile id="308">
   <animation>
    <frame tileid="308" duration="500"/>
    <frame tileid="309" duration="500"/>
   </animation>
  </tile>
 </tileset>
 <tileset firstgid="1025" name="z_desert_festival" tilewidth="16" tileheight="16" tilecount="1088" columns="32">
  <image source="desert_festival_tilesheet.png" width="512" height="544"/>
  <tile id="411">
   <animation>
    <frame tileid="411" duration="500"/>
    <frame tileid="414" duration="500"/>
    <frame tileid="411" duration="500"/>
    <frame tileid="414" duration="500"/>
    <frame tileid="411" duration="500"/>
    <frame tileid="414" duration="500"/>
    <frame tileid="411" duration="500"/>
    <frame tileid="414" duration="500"/>
    <frame tileid="412" duration="500"/>
    <frame tileid="412" duration="500"/>
    <frame tileid="412" duration="500"/>
    <frame tileid="412" duration="500"/>
    <frame tileid="412" duration="500"/>
    <frame tileid="414" duration="500"/>
    <frame tileid="412" duration="500"/>
    <frame tileid="412" duration="500"/>
    <frame tileid="412" duration="500"/>
    <frame tileid="412" duration="500"/>
    <frame tileid="412" duration="500"/>
   </animation>
  </tile>
  <tile id="443">
   <animation>
    <frame tileid="443" duration="500"/>
    <frame tileid="446" duration="500"/>
    <frame tileid="443" duration="500"/>
    <frame tileid="446" duration="500"/>
    <frame tileid="443" duration="500"/>
    <frame tileid="446" duration="500"/>
    <frame tileid="443" duration="500"/>
    <frame tileid="446" duration="500"/>
    <frame tileid="444" duration="500"/>
    <frame tileid="444" duration="500"/>
    <frame tileid="444" duration="500"/>
    <frame tileid="444" duration="500"/>
    <frame tileid="445" duration="500"/>
    <frame tileid="446" duration="500"/>
    <frame tileid="445" duration="500"/>
    <frame tileid="444" duration="500"/>
    <frame tileid="444" duration="500"/>
    <frame tileid="444" duration="500"/>
    <frame tileid="444" duration="500"/>
   </animation>
  </tile>
  <tile id="690">
   <animation>
    <frame tileid="690" duration="250"/>
    <frame tileid="690" duration="250"/>
    <frame tileid="690" duration="250"/>
    <frame tileid="690" duration="250"/>
    <frame tileid="690" duration="250"/>
    <frame tileid="690" duration="250"/>
    <frame tileid="690" duration="250"/>
    <frame tileid="690" duration="250"/>
    <frame tileid="690" duration="250"/>
    <frame tileid="691" duration="250"/>
    <frame tileid="690" duration="250"/>
    <frame tileid="690" duration="250"/>
    <frame tileid="690" duration="250"/>
    <frame tileid="690" duration="250"/>
    <frame tileid="690" duration="250"/>
    <frame tileid="690" duration="250"/>
    <frame tileid="690" duration="250"/>
    <frame tileid="691" duration="250"/>
    <frame tileid="690" duration="250"/>
    <frame tileid="690" duration="250"/>
    <frame tileid="690" duration="250"/>
    <frame tileid="690" duration="250"/>
    <frame tileid="690" duration="250"/>
    <frame tileid="690" duration="250"/>
    <frame tileid="690" duration="250"/>
    <frame tileid="690" duration="250"/>
    <frame tileid="690" duration="250"/>
    <frame tileid="690" duration="250"/>
    <frame tileid="690" duration="250"/>
    <frame tileid="690" duration="250"/>
   </animation>
  </tile>
  <tile id="776">
   <animation>
    <frame tileid="776" duration="250"/>
    <frame tileid="776" duration="250"/>
    <frame tileid="775" duration="250"/>
    <frame tileid="775" duration="250"/>
    <frame tileid="776" duration="250"/>
    <frame tileid="776" duration="250"/>
    <frame tileid="775" duration="250"/>
    <frame tileid="775" duration="250"/>
    <frame tileid="776" duration="250"/>
    <frame tileid="776" duration="250"/>
    <frame tileid="777" duration="250"/>
    <frame tileid="778" duration="250"/>
    <frame tileid="777" duration="250"/>
    <frame tileid="776" duration="250"/>
    <frame tileid="777" duration="250"/>
    <frame tileid="778" duration="250"/>
    <frame tileid="777" duration="250"/>
   </animation>
  </tile>
  <tile id="808">
   <animation>
    <frame tileid="808" duration="250"/>
    <frame tileid="808" duration="250"/>
    <frame tileid="807" duration="250"/>
    <frame tileid="807" duration="250"/>
    <frame tileid="808" duration="250"/>
    <frame tileid="808" duration="250"/>
    <frame tileid="807" duration="250"/>
    <frame tileid="807" duration="250"/>
    <frame tileid="808" duration="250"/>
    <frame tileid="808" duration="250"/>
    <frame tileid="809" duration="250"/>
    <frame tileid="810" duration="250"/>
    <frame tileid="809" duration="250"/>
    <frame tileid="808" duration="250"/>
    <frame tileid="809" duration="250"/>
    <frame tileid="810" duration="250"/>
    <frame tileid="809" duration="250"/>
   </animation>
  </tile>
  <tile id="1041">
   <animation>
    <frame tileid="1041" duration="500"/>
    <frame tileid="1041" duration="500"/>
    <frame tileid="1041" duration="500"/>
    <frame tileid="1041" duration="500"/>
    <frame tileid="1041" duration="500"/>
    <frame tileid="1041" duration="500"/>
    <frame tileid="1042" duration="500"/>
    <frame tileid="1042" duration="500"/>
    <frame tileid="1041" duration="500"/>
    <frame tileid="1041" duration="500"/>
    <frame tileid="1041" duration="500"/>
    <frame tileid="1041" duration="500"/>
    <frame tileid="1041" duration="500"/>
    <frame tileid="1043" duration="500"/>
    <frame tileid="1043" duration="500"/>
    <frame tileid="1041" duration="500"/>
    <frame tileid="1041" duration="500"/>
    <frame tileid="1041" duration="500"/>
    <frame tileid="1041" duration="500"/>
    <frame tileid="1041" duration="500"/>
    <frame tileid="1041" duration="500"/>
    <frame tileid="1041" duration="500"/>
    <frame tileid="1042" duration="500"/>
    <frame tileid="1042" duration="500"/>
    <frame tileid="1042" duration="500"/>
    <frame tileid="1041" duration="500"/>
    <frame tileid="1041" duration="500"/>
    <frame tileid="1041" duration="500"/>
    <frame tileid="1041" duration="500"/>
    <frame tileid="1041" duration="500"/>
    <frame tileid="1041" duration="500"/>
    <frame tileid="1041" duration="500"/>
    <frame tileid="1043" duration="500"/>
    <frame tileid="1043" duration="500"/>
    <frame tileid="1041" duration="500"/>
    <frame tileid="1041" duration="500"/>
    <frame tileid="1041" duration="500"/>
   </animation>
  </tile>
 </tileset>
 <tileset firstgid="2113" name="z_MovieTheater_TileSheet" tilewidth="16" tileheight="16" tilecount="256" columns="16">
  <image source="MovieTheater_TileSheet.png" width="256" height="256"/>
  <tile id="175">
   <animation>
    <frame tileid="175" duration="250"/>
    <frame tileid="175" duration="250"/>
    <frame tileid="175" duration="250"/>
    <frame tileid="175" duration="250"/>
    <frame tileid="188" duration="250"/>
    <frame tileid="175" duration="250"/>
    <frame tileid="175" duration="250"/>
    <frame tileid="188" duration="250"/>
    <frame tileid="175" duration="250"/>
    <frame tileid="175" duration="250"/>
    <frame tileid="175" duration="250"/>
    <frame tileid="175" duration="250"/>
    <frame tileid="175" duration="250"/>
    <frame tileid="175" duration="250"/>
    <frame tileid="175" duration="250"/>
    <frame tileid="175" duration="250"/>
    <frame tileid="175" duration="250"/>
    <frame tileid="175" duration="250"/>
    <frame tileid="175" duration="250"/>
    <frame tileid="175" duration="250"/>
    <frame tileid="175" duration="250"/>
    <frame tileid="175" duration="250"/>
    <frame tileid="175" duration="250"/>
    <frame tileid="175" duration="250"/>
    <frame tileid="190" duration="250"/>
    <frame tileid="190" duration="250"/>
    <frame tileid="190" duration="250"/>
    <frame tileid="190" duration="250"/>
    <frame tileid="175" duration="250"/>
    <frame tileid="175" duration="250"/>
    <frame tileid="175" duration="250"/>
    <frame tileid="175" duration="250"/>
    <frame tileid="175" duration="250"/>
    <frame tileid="175" duration="250"/>
    <frame tileid="175" duration="250"/>
    <frame tileid="175" duration="250"/>
    <frame tileid="190" duration="250"/>
    <frame tileid="190" duration="250"/>
    <frame tileid="190" duration="250"/>
    <frame tileid="190" duration="250"/>
    <frame tileid="190" duration="250"/>
    <frame tileid="190" duration="250"/>
    <frame tileid="190" duration="250"/>
    <frame tileid="190" duration="250"/>
   </animation>
  </tile>
  <tile id="191">
   <animation>
    <frame tileid="191" duration="1000"/>
    <frame tileid="191" duration="1000"/>
    <frame tileid="191" duration="1000"/>
    <frame tileid="191" duration="1000"/>
    <frame tileid="191" duration="1000"/>
    <frame tileid="191" duration="1000"/>
    <frame tileid="189" duration="1000"/>
    <frame tileid="191" duration="1000"/>
    <frame tileid="191" duration="1000"/>
    <frame tileid="189" duration="1000"/>
    <frame tileid="189" duration="1000"/>
   </animation>
  </tile>
  <tile id="201">
   <animation>
    <frame tileid="201" duration="750"/>
    <frame tileid="201" duration="750"/>
    <frame tileid="201" duration="750"/>
    <frame tileid="201" duration="750"/>
    <frame tileid="202" duration="750"/>
   </animation>
  </tile>
  <tile id="217">
   <animation>
    <frame tileid="217" duration="750"/>
    <frame tileid="217" duration="750"/>
    <frame tileid="217" duration="750"/>
    <frame tileid="217" duration="750"/>
    <frame tileid="218" duration="750"/>
   </animation>
  </tile>
  <tile id="235">
   <animation>
    <frame tileid="235" duration="750"/>
    <frame tileid="235" duration="750"/>
    <frame tileid="235" duration="750"/>
    <frame tileid="236" duration="750"/>
   </animation>
  </tile>
  <tile id="251">
   <animation>
    <frame tileid="251" duration="750"/>
    <frame tileid="251" duration="750"/>
    <frame tileid="251" duration="750"/>
    <frame tileid="252" duration="750"/>
   </animation>
  </tile>
 </tileset>
 <tileset firstgid="2369" name="z_pirates_tilesheet" tilewidth="16" tileheight="16" tilecount="190" columns="19">
  <image source="pirates_tilesheet.png" width="304" height="160"/>
  <tile id="15">
   <animation>
    <frame tileid="15" duration="170"/>
    <frame tileid="15" duration="170"/>
    <frame tileid="15" duration="170"/>
    <frame tileid="15" duration="170"/>
    <frame tileid="15" duration="170"/>
    <frame tileid="15" duration="170"/>
    <frame tileid="15" duration="170"/>
    <frame tileid="15" duration="170"/>
    <frame tileid="15" duration="170"/>
    <frame tileid="15" duration="170"/>
    <frame tileid="15" duration="170"/>
    <frame tileid="15" duration="170"/>
    <frame tileid="15" duration="170"/>
    <frame tileid="15" duration="170"/>
    <frame tileid="15" duration="170"/>
    <frame tileid="15" duration="170"/>
    <frame tileid="15" duration="170"/>
    <frame tileid="15" duration="170"/>
    <frame tileid="15" duration="170"/>
    <frame tileid="15" duration="170"/>
    <frame tileid="15" duration="170"/>
    <frame tileid="15" duration="170"/>
    <frame tileid="15" duration="170"/>
    <frame tileid="15" duration="170"/>
    <frame tileid="15" duration="170"/>
    <frame tileid="15" duration="170"/>
    <frame tileid="15" duration="170"/>
    <frame tileid="15" duration="170"/>
    <frame tileid="15" duration="170"/>
    <frame tileid="15" duration="170"/>
    <frame tileid="16" duration="170"/>
    <frame tileid="17" duration="170"/>
    <frame tileid="18" duration="170"/>
    <frame tileid="17" duration="170"/>
    <frame tileid="16" duration="170"/>
   </animation>
  </tile>
  <tile id="34">
   <animation>
    <frame tileid="34" duration="170"/>
    <frame tileid="34" duration="170"/>
    <frame tileid="34" duration="170"/>
    <frame tileid="34" duration="170"/>
    <frame tileid="34" duration="170"/>
    <frame tileid="34" duration="170"/>
    <frame tileid="34" duration="170"/>
    <frame tileid="34" duration="170"/>
    <frame tileid="34" duration="170"/>
    <frame tileid="34" duration="170"/>
    <frame tileid="34" duration="170"/>
    <frame tileid="34" duration="170"/>
    <frame tileid="34" duration="170"/>
    <frame tileid="34" duration="170"/>
    <frame tileid="34" duration="170"/>
    <frame tileid="34" duration="170"/>
    <frame tileid="34" duration="170"/>
    <frame tileid="34" duration="170"/>
    <frame tileid="34" duration="170"/>
    <frame tileid="34" duration="170"/>
    <frame tileid="34" duration="170"/>
    <frame tileid="34" duration="170"/>
    <frame tileid="34" duration="170"/>
    <frame tileid="34" duration="170"/>
    <frame tileid="34" duration="170"/>
    <frame tileid="34" duration="170"/>
    <frame tileid="34" duration="170"/>
    <frame tileid="34" duration="170"/>
    <frame tileid="34" duration="170"/>
    <frame tileid="34" duration="170"/>
    <frame tileid="35" duration="170"/>
    <frame tileid="36" duration="170"/>
    <frame tileid="37" duration="170"/>
    <frame tileid="36" duration="170"/>
    <frame tileid="35" duration="170"/>
   </animation>
  </tile>
  <tile id="63">
   <animation>
    <frame tileid="63" duration="250"/>
    <frame tileid="63" duration="250"/>
    <frame tileid="63" duration="250"/>
    <frame tileid="63" duration="250"/>
    <frame tileid="63" duration="250"/>
    <frame tileid="63" duration="250"/>
    <frame tileid="63" duration="250"/>
    <frame tileid="64" duration="250"/>
    <frame tileid="63" duration="250"/>
   </animation>
  </tile>
  <tile id="116">
   <animation>
    <frame tileid="116" duration="750"/>
    <frame tileid="116" duration="750"/>
    <frame tileid="134" duration="750"/>
   </animation>
  </tile>
  <tile id="135">
   <animation>
    <frame tileid="135" duration="750"/>
    <frame tileid="135" duration="750"/>
    <frame tileid="153" duration="750"/>
   </animation>
  </tile>
 </tileset>
 <tileset firstgid="2559" name="centralStation" tilewidth="16" tileheight="16" tilecount="740" columns="20">
  <image source=".Pathoschild.CentralStation_Tiles.png" width="320" height="592"/>
  <tile id="489">
   <animation>
    <frame tileid="489" duration="500"/>
    <frame tileid="489" duration="500"/>
    <frame tileid="489" duration="500"/>
    <frame tileid="490" duration="500"/>
    <frame tileid="489" duration="500"/>
    <frame tileid="490" duration="500"/>
    <frame tileid="489" duration="500"/>
    <frame tileid="489" duration="500"/>
    <frame tileid="489" duration="500"/>
    <frame tileid="489" duration="500"/>
    <frame tileid="489" duration="500"/>
    <frame tileid="489" duration="500"/>
    <frame tileid="489" duration="500"/>
   </animation>
  </tile>
  <tile id="553">
   <animation>
    <frame tileid="553" duration="500"/>
    <frame tileid="553" duration="500"/>
    <frame tileid="554" duration="500"/>
    <frame tileid="555" duration="500"/>
    <frame tileid="555" duration="500"/>
    <frame tileid="555" duration="500"/>
    <frame tileid="554" duration="500"/>
    <frame tileid="553" duration="500"/>
    <frame tileid="553" duration="500"/>
   </animation>
  </tile>
  <tile id="671">
   <animation>
    <frame tileid="671" duration="500"/>
    <frame tileid="691" duration="500"/>
    <frame tileid="711" duration="500"/>
   </animation>
  </tile>
  <tile id="672">
   <animation>
    <frame tileid="672" duration="500"/>
    <frame tileid="692" duration="500"/>
    <frame tileid="712" duration="500"/>
   </animation>
  </tile>
  <tile id="673">
   <animation>
    <frame tileid="673" duration="500"/>
    <frame tileid="693" duration="500"/>
    <frame tileid="713" duration="500"/>
   </animation>
  </tile>
  <tile id="674">
   <animation>
    <frame tileid="674" duration="500"/>
    <frame tileid="694" duration="500"/>
    <frame tileid="714" duration="500"/>
   </animation>
  </tile>
 </tileset>
 <layer id="2" name="Buildings" width="6" height="10">
  <data encoding="csv">
0,0,0,0,0,0,
308,285,349,311,309,96,
0,0,0,0,0,0,
1468,1747,1833,2098,0,0,
0,0,0,0,0,0,
2329,2304,2366,2364,2360,2330,
0,0,0,0,0,0,
2403,2451,2504,0,0,0,
0,0,0,0,0,0,
3112,0,0,0,0,0
</data>
 </layer>
 <layer id="35" name="Front" width="6" height="10">
  <data encoding="csv">
0,253,317,279,277,64,
0,0,0,0,0,0,
1436,1715,1801,2066,0,0,
0,0,0,0,0,0,
2313,2288,2350,2348,2344,2314,
0,0,0,0,0,0,
2384,2432,2485,0,0,0,
0,0,0,0,0,0,
0,0,0,0,0,0,
0,0,0,0,0,0
</data>
 </layer>
 <objectgroup id="36" name="Buildings">
  <object id="254" name="TileData" x="48" y="80" width="16" height="16">
   <properties>
    <property name="TileDesc" value="npcs,Lupini,tourist.lupini.name,Pathoschild.CentralStation.Content"/>
   </properties>
  </object>
  <object id="255" name="TileData" x="64" y="80" width="16" height="16">
   <properties>
    <property name="TileDesc" value="npcs,Red Cap Guy,tourist.red-cap-guy.name,Pathoschild.CentralStation.Content"/>
   </properties>
  </object>
  <object id="256" name="TileData" x="80" y="80" width="16" height="16">
   <properties>
    <property name="TileDesc" value="npcs,Shorts Man,tourist.shorts-man.name,Pathoschild.CentralStation.Content"/>
   </properties>
  </object>
  <object id="259" name="TileData" x="32" y="80" width="16" height="16">
   <properties>
    <property name="TileDesc" value="npcs,Governor,tourist.governor.name,Pathoschild.CentralStation.Content"/>
   </properties>
  </object>
  <object id="260" name="TileData" x="16" y="80" width="16" height="16">
   <properties>
    <property name="TileDesc" value="npcs,Cashier Girl,tourist.cashier-girl.name,Pathoschild.CentralStation.Content"/>
   </properties>
  </object>
  <object id="261" name="TileData" x="0" y="80" width="16" height="16">
   <properties>
    <property name="TileDesc" value="npcs,Welwick,tourist.welwick.name,Pathoschild.CentralStation.Content"/>
   </properties>
  </object>
  <object id="262" name="TileData" x="0" y="112" width="16" height="16">
   <properties>
    <property name="TileDesc" value="npcs,Red Pirate,tourist.red-pirate.name,Pathoschild.CentralStation.Content"/>
   </properties>
  </object>
  <object id="263" name="TileData" x="16" y="112" width="16" height="16">
   <properties>
    <property name="TileDesc" value="npcs,Grim Pirate,tourist.grim-pirate.name,Pathoschild.CentralStation.Content"/>
   </properties>
  </object>
  <object id="264" name="TileData" x="32" y="112" width="16" height="16">
   <properties>
    <property name="TileDesc" value="npcs,Blackgull Pirate,tourist.blackgull-pirate.name,Pathoschild.CentralStation.Content"/>
   </properties>
  </object>
  <object id="265" name="TileData" x="0" y="48" width="16" height="16">
   <properties>
    <property name="TileDesc" value="npcs,Desert Racer,tourist.desert-racer-man.name,Pathoschild.CentralStation.Content"/>
   </properties>
  </object>
  <object id="266" name="TileData" x="16" y="48" width="16" height="16">
   <properties>
    <property name="TileDesc" value="npcs,Desert Scholar,tourist.desert-scholar-man.name,Pathoschild.CentralStation.Content"/>
   </properties>
  </object>
  <object id="267" name="TileData" x="32" y="48" width="16" height="16">
   <properties>
    <property name="TileDesc" value="npcs,Flamingo,tourist.flamingo.name,Pathoschild.CentralStation.Content"/>
   </properties>
  </object>
  <object id="268" name="TileData" x="48" y="48" width="16" height="16">
   <properties>
    <property name="TileDesc" value="npcs,Shrouded Figure,tourist.shrouded-figure.name,Pathoschild.CentralStation.Content"/>
   </properties>
  </object>
  <object id="270" name="TileData" x="0" y="16" width="16" height="16">
   <properties>
    <property name="TileDesc" value="npcs,Young Boy,tourist.young-boy.name,Pathoschild.CentralStation.Content"/>
   </properties>
  </object>
  <object id="273" name="TileData" x="16" y="16" width="16" height="16">
   <properties>
    <property name="TileDesc" value="npcs,Woman in black dress,tourist.black-dress-woman.name,Pathoschild.CentralStation.Content"/>
   </properties>
  </object>
  <object id="274" name="TileData" x="32" y="16" width="16" height="16">
   <properties>
    <property name="TileDesc" value="npcs,Man with a drink,tourist.drink-man.name,Pathoschild.CentralStation.Content"/>
   </properties>
  </object>
  <object id="275" name="TileData" x="48" y="16" width="16" height="16">
   <properties>
    <property name="TileDesc" value="npcs,Sunglasses Man,tourist.sunglasses-man.name,Pathoschild.CentralStation.Content"/>
   </properties>
  </object>
  <object id="276" name="TileData" x="64" y="16" width="16" height="16">
   <properties>
    <property name="TileDesc" value="npcs,Man with top hat,tourist.top-hat-man.name,Pathoschild.CentralStation.Content"/>
   </properties>
  </object>
  <object id="277" name="TileData" x="80" y="16" width="16" height="16">
   <properties>
    <property name="TileDesc" value="npcs,Strong Man,tourist.strong-man.name,Pathoschild.CentralStation.Content"/>
   </properties>
  </object>
 </objectgroup>
</map>
